X: 742
T: Eğilmez Başın Gibi
C: Kaptanzâde Ali Rıza Bey
O: Turkey
F: http://compmusic.upf.edu/node/140
N: hicaz-humayun--sarki--sofyan--egilmez_basin--kaptanzade_ali_riza_bey
N: makam= hicaz-humayun
N: form= sarki
N: usul= sofyan = 4/4
M: 4/4
L: 1/16
K: C _7/8B ^c  
Q: 1/4=78
%%MIDI tuningsystem comma53
.a4 .a4 a2{b}ag f2{g}fe  | d8 zABc de^fa  | \
w:  ARANAĞME  |   | 
.g4 .g4 {a}gffe eddc  | 
w:   | 
c8 cdcB ABce  | d3d d2dc c3B B2BA  | \
w:   |   | 
G6d_e dedc BcBA  | 
w:   | 
z2GA B2BA G6d2  | A6e2 A2e2 .a4  | .a4 .a4 a2{b}ag f2{g}fe  | 
w:   |   |  ARANAĞME  | 
d8 zABc de^fa  | .g4 .g4 {a}gffe eddc  | \
w:   |   | 
c8 cdcB ABce  | 
w:   | 
d3d d2dc c3B B2BA  | G6d_e dedc BcBA  | 
w:   |   | 
z2GA B2BA G6d2  | A6e2 A2e2 .A4  | z2cd e2f2 ed2c cBBA  | 
w:   |   |  E ğil mez  ba şın  *  *  gi  | 
e8 efed cdcB  | A2cd e2f2 fe2d eddc  | 
w:  bi   SAZ  |  *  Gök ler  bu lut lu  *  *  e  | 
c8 fe2d efed  | d3d d2dc c3B B2BA  | \
w:  fem   SAZ  |  Dağ lar  yol da *  şın  *  gi  | 
G2gf efed cdcB ABAG  | 
w:  bi   SAZ  | 
z2GA B2BA G6d2  | A6e2 .A4 .e4  | z2cd e2f2 ed2c cBBA  | 
w:  Sa na  ne  mut *  lu  e  |  fem  e fem   SAZ  |  E ğil mez  ba şın  *  *  gi  | 
e8 efed cdcB  | A2cd e2f2 fe2d eddc  | 
w:  bi   SAZ  |  *  Gök ler  bu lut lu  *  *  e  | 
c8 fe2d efed  | d3d d2dc c3B B2BA  | \
w:  fem   SAZ  |  Dağ lar  yol da *  şın  *  gi  | 
G2gf efed cdcB ABAG  | 
w:  bi   SAZ  | 
z2GA B2BA G6d2  | A6e2 A4 a4  | .a4 .a4 a2{b}ag f2{g}fe  | \
w:  Sa na  ne  mut *  lu  e  |  fem  e fem   SAZ  |  Oy na  yan *  sın  *  cep *  ke  | 
d12 de^fa  | 
w:  nin   SAZ  | 
.g4 .g4 {a}gffe eddc  | c8 ABA^G ABce  | \
w:  Yan sın  *  gü neş *  *  ten  *  te  |  nin   SAZ  | 
d3d d2dc c3B B2BA  | 
w:  Gün  se nin  şen *  lik  *  se  | 
G8 d_edc BAG2  | z2GA B2BA G6d2  | A6e2 .A4 a2z2  | 
w:  nin   SAZ  |  Bay ra mın  kut *  lu  e  |  fem  e fem   SAZ  | 
.a4 .a4 a2{b}ag f2{g}fe  | d12 de^fa  | \
w:  Oy na  yan *  sın  *  cep *  ke  |  nin   SAZ  | 
.g4 .g4 {a}gffe eddc  | 
w:  Yan sın  *  gü neş *  *  ten  *  te  | 
c8 ABA^G ABce  | d3d d2dc c3B B2BA  | \
w:  nin   SAZ  |  Gün  se nin  şen *  lik  *  se  | 
G8 d_edc BAG2  | 
w:  nin   SAZ  | 
z2GA B2BA G6d2  | A6e2 A2e2 .A4  | |


